X:1
T:O Dive Custos
T:Henry Purcell (1659—1695)
T:Henry Parker
T:O Dive Custos
T:Edition created by Ben Newton (bejomin@me.com).  Copyright © 2018 by CPDL. This edition can be fully distributed, duplicated, performed, and recorded.
T:Elegy on the Death of Queen Mary, Z.504
T:Edition created by Ben Newton (bejomin@me.com).  Copyright © 2018 by CPDL. This edition can be fully distributed, duplicated, performed, and recorded.
T:Edition created by Ben Newton (bejomin@me.com).  Copyright © 2018 by CPDL. This edition can be fully distributed, duplicated, performed, and recorded.
T:Edition created by Ben Newton (bejomin@me.com).  Copyright © 2018 by CPDL. This edition can be fully distributed, duplicated, performed, and recorded.
T:Edition created by Ben Newton (bejomin@me.com).  Copyright © 2018 by CPDL. This edition can be fully distributed, duplicated, performed, and recorded.
T:Edition created by Ben Newton (bejomin@me.com).  Copyright © 2018 by CPDL. This edition can be fully distributed, duplicated, performed, and recorded.
T:Edition created by Ben Newton (bejomin@me.com).  Copyright © 2018 by CPDL. This edition can be fully distributed, duplicated, performed, and recorded.
T:Edition created by Ben Newton (bejomin@me.com).  Copyright © 2018 by CPDL. This edition can be fully distributed, duplicated, performed, and recorded.
T:Edition created by Ben Newton (bejomin@me.com).  Copyright © 2018 by CPDL. This edition can be fully distributed, duplicated, performed, and recorded.
T:Edition created by Ben Newton (bejomin@me.com).  Copyright © 2018 by CPDL. This edition can be fully distributed, duplicated, performed, and recorded.
T:Edition created by Ben Newton (bejomin@me.com).  Copyright © 2018 by CPDL. This edition can be fully distributed, duplicated, performed, and recorded.
T:Edition created by Ben Newton (bejomin@me.com).  Copyright © 2018 by CPDL. This edition can be fully distributed, duplicated, performed, and recorded.
T:Edition created by Ben Newton (bejomin@me.com).  Copyright © 2018 by CPDL. This edition can be fully distributed, duplicated, performed, and recorded.
T:Edition created by Ben Newton (bejomin@me.com).  Copyright © 2018 by CPDL. This edition can be fully distributed, duplicated, performed, and recorded.
C:Henry Purcell (1659—1695)
Z:Henry Parker
Z:Edition created by Ben Newton (bejomin@me.com).  Copyright © 2018 by CPDL.
Z:This edition can be fully distributed, duplicated, performed, and recorded.
%%score [ 1 2 ] 3
L:1/8
M:4/4
K:C
V:1 treble nm="Countertenor 1" snm="CT1"
V:2 treble nm="Countertenor 2" snm="CT2"
V:3 bass nm="Basso Continuo" snm="BC"
V:1
 (E2- E/F/E/F/ G2- G/F/G/E/) | F2 F2 E2 EE | (EA/G/ F/E/D/C/ B,)C (DE/D/) | C2 A,2 z4 | z8 | z8 | %6
w: O _ _ _ _ _ _ _ _ _|di- ve cus- tos au-|ri- * * * * * * * a- cae _ _|do- mus,|||
 (B2- B/c/B/c/ d2- d/c/d/B/) | c2 c2 z4 | cB B2 B2 BB | (Be/d/ c/B/A/^G/ A4- | A>)A (A^G) A2 A2 | %11
w: O _ _ _ _ _ _ _ _ _|di- ve|cus- * tos, cus- tos au-|ri- * * * * * * *|* a- cae _ do- mus|
 z2 c2 c2 (ed) | (cBAG =FE) (E/G/F/E/) | D>D D(E/F/ G3 A/B/ | c2- c/e/d/c/ B3) c | c4 z4 | z8 | %17
w: et spes la- *|ban- * * * * * tis _ _ _|cer- ti- or im- * * * *|* * * * * * pe-|ri;||
 z8 | z2 (dG) A2 AB | (Bc)cc (B/c/B/c/ d2- | d/d/e/B/ ^c>d) d2 (dA) | (B3 =c/B/) B2 (eE) | %22
w: |o _ re- bus ad-|ver- * sis vo- can- * * * *|* * * * * * de, o _|re- * * bus ad- *|
 =F2 ^FF (G4- | G^F/A/ G/A/B/c/ B/A/G F>E) | E4 z2 (^G/^F/E) | (E/B,/^C/^D/ E/^F/^G/A/ B>)B BB | %26
w: ver- sis vo- can-||de, o _ _|su- * * * * * * * * pe- rum, o|
 (B/E/^F/^G/ A/B/=c/=d/ e4- | e/d/c/B/ A2- A)B(cd) | (d^G) G2 z2 BB | (B/c/A/B/ c2- c/d/B/c/ d2- | %30
w: su- * * * * * * * *|* * * * * * pe- rum _|de- * cus in se-|cun- * * * * * * * * *|
 d/e/c/d/ ed/c/ B3 A) | A8 ||[M:3/2] z12 | z12 | A4 c4 e4 | (d2 c2 B2 c2 d2 B2 | c6 d2) c4 | %37
w: |dis!|||Seu te flu-|en- * * * * *|* * tem|
 A6 A2 d4 | B6 c2 B4 | B4 (A2 G2) (^F2 E2) | ^D4 B,8 | E4 (^F2 G2) (A2 B2) | c4 c4 c4 | %43
w: pro- nus ad|I- si- da|in vo- * ta _|fer- vens,|in vo- * ta _|fer- vens Ox-|
 (B3 c B3 A G3 B | A3 B A3) G (^FG A2) | G4 E4 z4 | G4 G4 G4 | E4 E4 F3 G | A8 A4 | (A4 G4) F4 | %50
w: o- * * * * *|* * * ni- dum _ _|cho- rus,|seu te pre-|can- tur, quos re-|mo- ti|un- * da|
 E4 E4 A2 G2 | (G4 F4) E4 | F4 D4 z4 | d4 d4 d4 | B4 B4 c3 d | e8 e4 | (e4 d4) c4 | B4 B4 (e2 d2) | %58
w: la- vat pro- pe-|ra- * ta|Ca- mi,|seu te pre-|can- tur, quos re-|mo- ti|un- * da|la- vat pro- pe-|
 (d4 c4) B4 | c4 A4 z4 | z4 z4 z2 e2 | c4 G4 z2 c2 | (G4 F2 E2) (D2 EF) | E4 C4 G4 | (c6 d2) c4 | %65
w: ra- * ta|Ca- mi,|De-|scen- de, de-|scen- * * de _ _|cae- lo non|i- * ta|
 B6 A2 G4 | z12 | z2 A2 d4 B4 | z2 D2 G4 E4 | (A2 G2) (A2 B2) c4 | c6 d2 B4 | c4 c4 z4 | %72
w: cre- di- tas||Vi- su- rus,|vi- su- rus|ae- * des _ prae-|si- di- is|tu- is,|
 z4 z4 z2 e2 | c4 G4 z2 c2 | A4 (B2 c2) (B2 A2) | ^G4 G4 z2 G2 | A4 A4 z2 B2 | (c2 d2 e4) (d2 c2) | %78
w: De-|scen- de, de-|scen- de _ vi- *|su- rus pe-|na- tes, pe-|na- * * tes _|
 B6 c2 B4 | z4 B8 | z4 ^c8 | (d3 =c B4) A4 | (A6 B2) ^G4 | A4 A4 z4 | z4 c8 | z4 ^c8 | %86
w: cae- sa- ris,|et,|et,|pe- * * ne-|tra- * le|sa- crum,|et,|et|
 (d3 =c B4) A4 | A6 B2 ^G4 | A4 A8 ||[M:2/2] z2 z ^G (G>A G/A/B- | B/^G/)G z2 c2 (cG) | %91
w: pe- * * ne-|tra- * le|sa- crum.|Ma- ri- * * * *|* * a mu- sis _|
 (A2 B>c =G2 A>B | D>)E F2 E>D C2 | z8 | z8 | z8 | z2 z e (eB) B2 | z2 z e (eB) (B/c/d) | %98
w: fle- * * * * *|* bi- lis oc- ci- dit,||||Ma- ri- * a,|Ma- ri- * a _ _|
 c>B A2 z2 f2 | (fe) e2 z2 _e2 | (_ed) d2 z2 d2 | z2 d2 z2 (_ed) | d2 d_e c2 cc | (c_B)BB A3 A | %104
w: oc- ci- dit, o|fle- * te, o|fle- * te, o,|o, o _|fle- te Ma- ri- am! o|fle- * te- Ma- ri- am!|
 z4 z2 _B2 | (_BA)AA A2 GG | (GF)FE E3 D | D4 z2 _B2 | (_BA) A2 z2 _A2 | (_AG) G2 z2 G2 | %110
w: o|fle- * te Ma- ri- am! o|fle- * te Ca- moe- *|nae! o|fle- * te, o|fle- * te, o,|
 z2 G2 z2 G_A | F3 F z4 | z8 | F3 F ^F3 F | (^F2 G)A D3 D | z8 | c3 c ^c3 c | (^c2 d)d ^G3 G | %118
w: o fle- te,|Di- vae,||fle- te de- a|mo- * ri- en- te,||fle- te de- a|mo- * ri- en- te,|
"^O dive custos auriacae domus Et spes labantis certior imperi;O rebus adversis vocande, O superum decus in secundis!Seu te fluentem pronus ad Isida In vota fervens Oxonidum chorus,Seu te precantur, quos remoti Unda lavat properata Cami,Descende caelo non ita creditas Visurus aedes praesidiis tuis,Descende visurus penates Caesaris, et penetrale sacrum.Maria musis flebilis occidit, Maria, gentis deliciae brevis;O flete Mariam! flete, Camoenae! O flete, Divae, dea moriente. HENRY PARKER (1695)" z4 z2 (B2- | %119
w: mo-|
 B2 A2 ^G2 =G2- | %120
w: |
 G2"^O God, guardian of the House of Orange, and surer hope of fleeting power,O you who should be invoked in adversity, O divine ornament in prosperity –whether the eager choir of Oxford by the river Isis callson you in prayer of they who are washed by the swift stream of the distant Cam –come down from heaven to visit with your help the palace not thus entrusted,come down and visit the chapel of our Monarch and the sacred chamber.Mary is dying, lamented by the Muses, short-lived darling of her people,O weep for Mary, O weep you Muses, O weep you Goddesses, for the dying divinity.English translation by Oliver Taplin." ^F2 =F4- | %121
w: |
 FE) (D/C/D/B,/) (B,3 A,) | A,8 |] %123
w: * * ri- * * * en- *|te.|
V:2
 z8 | z8 | z8 | (A2- A/c/B/c/ d2- d/c/d/B/) | c2 c2 B2 BB | (Be/d/ c/B/A/G/ ^F)G (AB/A/) | %6
w: |||O _ _ _ _ _ _ _ _ _|di- ve cus- tos au-|ri- * * * * * * * a- cae _ _|
 ^G2 E2 z4 | (E2- E/F/E/F/ =G2- G/F/G/E/) | F2 F2 FE E2 | E2 EE (EA/G/ F/E/D/C/ | %10
w: do- mus,|O _ _ _ _ _ _ _ _ _|di- ve cus- * tos,|cus- tos au- ri- * * * * * *|
 B,)C (DE/D/) C2 A,2 | z2 A2 A2 (cB) | (AGFE DC) (C/E/D/C/) | B,>B, B,2- B,(C/D/ E2- | %14
w: * a- cae _ _ do- mus|et spes la- *|ban- * * * * * tis _ _ _|cer- ti- or _ im- * *|
 EF/G/ A/G/F/E/ D3) C | C4 z2 (GE) | D2 DE (EF)FF | (E/^F/E/F/ G2- G/A/B/E/ F>G) | G4 z4 | z8 | %20
w: * * * * * * * * pe-|ri; o _|re- bus ad- ver- * sis vo-|can- * * * * * * * * * *|de,||
 z2 (AE) (^F3 G/F/) | ^F2 G^D E2 EE | (E4- E^D/^F/ E/F/G/A/ | ^D2 E4 D2) | E4 z4 | %25
w: o _ re- * *|bus ad- * ver- sis vo-|can- * * * * * * *||de,|
 z2 (^G/^F/E) (E/B,/^C/^D/ E/F/G/A/ | B>)B BB (B/E/^F/^G/ A/B/=c/=d/ | e2- e/d/c/B/ A>)A (A^G) | %28
w: o _ _ su- * * * * * * *|* pe- rum, o su- * * * * * * *|* * * * * * pe- rum _|
 (^G/A/B) B2 z2 GG | (^G2- G/A/^F/G/ A2- A/B/G/A/ | B/c/A/B/ cB/A/ ^G3 A) | A8 ||[M:3/2] A4 c4 e4 | %33
w: de- * * cus in se-|cun- * * * * * * * * *||dis!|Seu te flu-|
 (d2 c2 B2 c2 d2 B2 | c2 B2 A2 B2 c2 A2 | B2 A2 ^G2 A2 B2 G2 | A6 B2) A4 | ^F6 E2 F4 | G6 A2 G4 | %39
w: en- * * * * *|||* * tem|pro- nus ad|I- si- da|
 z12 | B,4 (C2 ^D2) (E2 ^F2) | G4 B8 | B4 (A2 G2) (^F2 E2) | ^D4 B,4 E4 | (^F3 G F3) E (E2 ^D2) | %45
w: |in vo- * ta _|fer- vens,|in vo- * ta _|fer- vens Ox-|o- * * ni- dum _|
 E4 E4 z4 | E4 E4 E4 | ^C4 C4 D3 E | F8 F4 | (F4 E4) D4 | ^C4 C4 F2 E2 | (E4 D4) ^C4 | D4 D4 z4 | %53
w: cho- rus,|seu te pre-|can- tur, quos re-|mo- ti|un- * da|la- vat pro- pe-|ra- * ta|Ca- mi,|
 B4 B4 B4 | ^G4 G4 A3 B | c8 c4 | (c4 B4) A4 | ^G4 G4 (c2 B2) | (B4 A4) ^G4 | A4 A4 z2 e2 | %60
w: seu te pre-|can- tur, quos re-|mo- ti|un- * da|la- vat pro- pe-|ra- * ta|Ca- mi, De-|
 c4 G4 z2 G2 | E4 C4 z2 E2 | (C6 D2) B,4 | C4 C4 D4 | (E6 G2) ^F4 | G6 G2 G4 | z2 B2 c4 G4 | %67
w: scen- de, de-|scen- de, de-|scen- * de|cae- lo non|i- * ta|cre- di- tas|Vi- su- rus,|
 z2 C2 F4 D4 | z2 B,2 E4 C4 | (F2 E2) (F2 G2) (A2 G2) | E6 F2 (E2 D2) | E4 C4 z2 e2 | c4 G4 z2 G2 | %73
w: vi- su- rus,|vi- su- rus|ae- * des _ prae- *|si- di- is _|tu- is, De-|scen- de, de-|
 E4 C4 z2 E2 | C4 (D2 E2) (D2 C2) | B,4 B,4 z2 B,2 | C4 C4 z2 D2 | E8 (^FG A2) | ^G6 A2 G4 | %79
w: scen- de, de-|scen- de _ vi- *|su- rus pe-|na- tes, pe-|na- tes _ _|cae- sa- ris,|
 z4 A8 | z4 G8 | (F3 E D4) C4 | B,8 E4 | C4 A,4 z4 | z4 A8 | z4 G8 | (F3 E D4) C4 | B,8 E4 | %88
w: et,|et,|pe- * * ne-|tra- le|sa- crum,|et,|et|pe- * * ne-|tra- le|
 C4 A,8 ||[M:2/2] z8 | z8 | z8 | z8 | z2 z ^G (G>A G/A/B- | B/^G/)G z2 c2 cG | %95
w: sa- crum.|||||Ma- ri- * * * *|* * a gen- tis de-|
 (A>B A/B/c- c/d/B/c/ d/)c/B | ^G2 G2 z2 z e | (eB)Bc (c^G) (G/A/B/G/) | A>A A2 z4 | %99
w: li- * * * * * * * * * ci- ae|bre- vis; Ma-|ri- * a, Ma- ri- * a _ _ _|oc- ci- dit,|
 z2 c2 (cB) B2 | z2 c2 (cB) B2 | z2 c2 z2 c2 | (cB)BB c3 c | z4 z2 F2 | (FE)EE D3 D | %105
w: o fle- * te,|o fle- * te,|o, o|fle- * te Ma- ri- am!|o|fle- * te Ma- ri- am!|
 z2 ^C2 (CD)DD | E2 DD ^C3 D | D4 z4 | z2 F2 (FE) E2 | z2 F2 (FE) E2 | F2 z2 F2 FE | F3 F c3 c | %112
w: o fle- * te Ma-|ri- am! Ca- moe- *|nae!|o fle- * te,|o fle- * te,|o, o fle- te,|Di- vae, fle- te|
 ^c3 c (c2 d)e | A3 A z4 | z4 G3 G | ^G3 G (G2 A)B | E6 E2 | (E2 F)F B,3 B, | z2 (E4 D2 | %119
w: de- a mo- * ri-|en- te,|fle- te|de- a mo- * ri-|en- te,|mo- * ri- en- te,|mo- *|
 ^C2 =C4 B,2 | _B,6 A,2 | ^G,2) A,2 (A,2 G,2) | A,8 |] %123
w: ||* ri- en- *|te.|
V:3
"^7#" A,,8- |"^64" A,,4"^6" G,,4 |"^6" F,,2 D,,2"^4""^#" E,,4 |"^9J5" A,,8 | A,,4"^#" E,2"^ü" D,2 | %5
"^6" C,2 A,,2"^4" B,,2"^#" B,,,2 |"^#""^7" E,,8 |"^7#" A,,8 |"^65" D,4"^7""^6" ^G,,4 | %9
"^6" C,2"^ü" C,,2"^6" F,,2 D,,2 |"^4""^#" E,,4 A,,4 | A,,8 | A,,4"^65" B,,2 C,2 | %13
 G,,2 G,"^ü"F,"^6" E,"^ü"D,C,"^ü"B,, |"^6" A,,"^ü"G,, F,,2"^4""^#" G,,4 | C,,4 C,4- | %16
"^ü" C,4"^6" B,,4 | C,2"^6" B,,2"^7""^H" A,,4 |"^ü" G,,8 |"^6" ^F,,4 G,,2"^6" =F,,2 | %20
"^#" E,,2"^7#" A,,2"^#" D,,2"^ü" D,2 |"^6D" ^D,2"^ü" B,,2"^6" ^G,,4 | %22
 A,,2"^HD" ^A,,2"^64" B,,2"^6" C,2 |"^GD" B,,2"^H5" =A,,2"^64" B,,2"^GD" B,,,2 |"^#" E,,8- | E,,8 | %26
"^F2" D,,4"^6" C,,2"^6" C,"^ü"B,, | A,,3"^ü" G,,"^6" F,,4 |"^#" E,,8- | E,,4"^6" F,,3"^ü" E,, | %30
"^65" D,,4"^4""^#" E,,4 | A,,8 ||[M:3/2] A,,12 |"^64" A,,4"^6" ^G,,8 | A,,8 A,,,4 | %35
"^65" D,,4"^#" E,,8 | A,,12 |"^#" D,8"^ü" D,,4 | G,,12 |"^H" A,,12 | %40
"^#" B,,6"^ü" A,,2"^6" G,,2"^üü" ^F,,2 | E,,8 E,,4 |"^H" A,,12 |"^#" B,,4"^6" G,,4 C,4 | %44
"^H" A,,4"^7#" B,,4"^ü4""^#" B,,,4 | E,,12- | E,,8 E,,4 |"^#" A,,8"^7E""^Hüü" G,,4 | %48
"^6" F,,4"^üüüüüüüü" E,,4 D,,4 |"^65" ^C,,8 D,,4 | A,,8"^6" F,,4 |"^H" G,,4"^64" A,,4"^#" A,,,4 | %52
 D,,4"^üü" D,2"^üüü" E,2"^üüü" F,2"^üüü" E,2 | %53
"^H" D,2"^üü" C,2"^üüü" B,,2"^üüü" C,2"^üüü" D,2"^üüü" B,,2 |"^#" E,8"^7""^H" D,4 | %55
"^6" C,4 B,,4"^üüüüüüü" A,,4 |"^7" D,6"^üüü" E,2"^üüü" F,2"^üüü" D,2 |"^#" E,8"^6" C,4 | %58
"^H" D,4"^64" E,4"^#" E,,4 | A,,8 A,,4 | C,12- | C,8 C,,4 |"^6" E,,4"^6" F,,4"^7" G,,4 | %63
 C,8"^6" B,,4 |"^7" A,,8"^7#" D,4 | G,,8 z2 G,,2 | G,4"^6" E,4 z2 C,2 | F,4 D,4 z2"^64" D,2 | %68
 G,4"^6" E,4 z2 A,2 | F,8 F,,4 |"^64""^7" G,,12 | C,,12- | C,,12- | C,,12 | F,,8"^65" D,,4 | %75
"^#" E,,8"^ü" E,,4 | A,,8 G,,4 | C,8"^H4""^53" A,,4 |"^#" E,12 |"^43" F,12 |"^H" E,12 | %81
"^64" D,8"^7" D,,4 |"^4""^#" E,,12 | A,,4 A,4"^ü" G,4 | F,12 |"^H" E,12 |"^64" D,8"^7" D,,4 | %87
"^4""^#" E,,12 | A,,12 ||[M:2/2]"^#" E,,8- |"^G#" E,,8 | F,,4"^6" E,,2"^ü" C,,2 |"^7" G,,4 C,4 | %93
"^H" B,,8- | B,,4 A,,2"^#" E,,2 | F,,3"^ü" E,,"^65" D,,4 |"^#" E,,8- | E,,8 | A,,4"^65" B,,4 | %99
 C,4 G,,4 |"^65" ^F,,4 G,,4 |"^43" _A,,4"^ü" =F,,4 | G,,4 C,,4 |"^Y" D,,2"^6T" E,,2 F,,4 | %104
"^64" G,,2 A,,2"^6" _B,,2"^ü" G,,2 |"^#" A,,4"^7""^6" _B,,4 |"^65E" G,,4"^4" A,,2"^#" A,,2 | %107
 D,,4"^6T" E,,4 | F,,4 C,4 |"^65" B,,4 C,4 |"^6" _D,2"^6C" _B,,2"^4" C,2"^3" C,,2 |"^!" F,,8 | %112
"^H" E,,8 | D,,4"^#" D,4 |"^F2" C,4"^6" B,,4- |"^H" B,,8 | A,,4"^F2" G,,4 |"^6" F,,4"^#" E,,4- | %118
 E,,8- |"^H4""^Y""^üüüüü""^53" E,,8 |"^Y4""^D""^üüüüü""^E""^5ü" D,,8 | %121
"^7#" E,,2"^4" E,,4"^#""^üüüüüüüüüüüüüüü" E,,2 | A,,8 |] %123

